Obsidian-SemiLight/actions/22s/snap-text-baseline.svg

<svg viewBox="0 0 22 22" xmlns="http://www.w3.org/2000/svg"><path d="m9.9101562 3-3.3144531 9.59375-.1230469.40625-1.1054687 3h.6328125v1h.6582031l1.625-4.4375h5.4335939l1.625 4.4375h1.658203l-1.472656-4-.123047-.40625-3.314453-9.59375h-.214844-1.75zm1.1054688 1.9375 2.179687 6.34375h-4.3906245z" fill="#4d4d4d"/><path d="m3 15v4h4v-4zm1 1h2v2h-2z" fill="#3daee9"/></svg>

<svg xmlns="http://www.w3.org/2000/svg" viewBox="0 0 22 22">
  <defs id="defs3051">
    <style type="text/css" id="current-color-scheme">
      .ColorScheme-Text {
        color:#4d4d4d;
      }
      .ColorScheme-Highlight {
        color:#3daee9;
      }
      </style>
  </defs>
 <path 
     style="fill:currentColor;fill-opacity:1;stroke:none" 
     d="M 9.9101562 3 L 6.5957031 12.59375 L 6.4726562 13 L 5.3671875 16 L 6 16 L 6 17 L 6.6582031 17 L 8.2832031 12.5625 L 13.716797 12.5625 L 15.341797 17 L 17 17 L 15.527344 13 L 15.404297 12.59375 L 12.089844 3 L 11.875 3 L 10.125 3 L 9.9101562 3 z M 11.015625 4.9375 L 13.195312 11.28125 L 8.8046875 11.28125 L 11.015625 4.9375 z "
     class="ColorScheme-Text"
     />
 <path 
     style="fill:currentColor;fill-opacity:1;stroke:none" 
     d="M 3 15 L 3 19 L 7 19 L 7 15 L 3 15 z M 4 16 L 6 16 L 6 18 L 4 18 L 4 16 z "
     class="ColorScheme-Highlight"
     />
</svg>
